public/library/intellij-solidity-plugin-icon-light.svg

<?xml version="1.0"?>
<svg width="880" height="880" xmlns="http://www.w3.org/2000/svg" xmlns:svg="http://www.w3.org/2000/svg">
    <title>solidity_intellij_plugin</title>
    <g>
        <title>Layer 1</title>
        <g id="solidity">
            <g id="Group">
                <path d="m405.15472,31.45614l-130.704,232.302l-261.226,0l130.614,-232.302l261.316,0" opacity="0.45"
                      id="Shape"/>
                <path fill="black" d="m274.45072,263.75814l261.318,0l-130.614,-232.302l-261.316,0l130.612,232.302z"
                      opacity="0.6" id="Shape_1_"/>
                <path fill="black"
                      d="m143.83872,495.97014l130.612,-232.212l-130.612,-232.302l-130.614,232.302l130.614,232.212z"
                      opacity="0.8" id="Shape_2_"/>
                <path fill="black" d="m472.21482,849.16388l130.704,-232.303l261.318,0l-130.705,232.303l-261.317,0"
                      opacity="0.45" id="Shape_3_"/>
                <path fill="black" d="m602.91782,616.86188l-261.317,0l130.613,232.303l261.317,0l-130.613,-232.303z"
                      opacity="0.6" id="Shape_4_"/>
                <path fill="black"
                      d="m733.53182,384.64988l-130.614,232.212l130.614,232.303l130.704,-232.303l-130.704,-232.212z"
                      opacity="0.8" id="Shape_5_"/>
            </g>
        </g>
        <text transform="matrix(12.428571701049803,0,0,12.428571701049803,-3865.2747824490066,-5002.370491862295) " xml:space="preserve" text-anchor="middle" font-family="Sans-serif" font-size="24" id="svg_7" y="442.666664" x="344" stroke-linecap="null" stroke-linejoin="null" stroke-dasharray="null" stroke-width="0" fill="#ffffff">SL</text>
        <g id="svg_1">
            <rect fill="black" id="svg_2" height="450.33" width="450.33" y="221.222212" x="209.753084"/>
            <path id="svg_17"
                  d="m332.49616,625.20803l15.10324,0l0,15.10323l-15.10324,0l0,-15.10323zm1.76205,-13.34119l0,11.57914l11.57914,0l0,-11.57914l-11.57914,0z"
                  stroke-linecap="null" stroke-linejoin="null" stroke-dasharray="null" stroke-width="null"
                  fill="black"/>
        </g>
        <rect id="svg_20" height="23.247423" width="212.00001" y="580.802463" x="236.641973" stroke-linecap="null"
              stroke-linejoin="null" stroke-dasharray="null" stroke-width="null" fill="#ffffff"/>
        <text transform="matrix(11.654572536641838,0,0,11.654572536641838,-4381.3602269365865,-5089.9781569193065) " xml:space="preserve" text-anchor="middle" font-family="Sans-serif" font-size="24" id="svg_9" y="479.669227" x="409.996124" stroke-linecap="null" stroke-linejoin="null" stroke-dasharray="null" stroke-width="0" fill="#ffffff">SL</text>
        <rect id="svg_15" height="1.333333" width="0" y="836.148149" x="205.333333" stroke-linecap="null"
              stroke-linejoin="null" stroke-dasharray="null" stroke-width="0" fill="#ffffff"/>
    </g>
</svg>

<svg xmlns="http://www.w3.org/2000/svg" width="880" height="880"><title>solidity_intellij_plugin</title><title>Layer 1</title><path d="M405.155 31.456 274.45 263.758H13.225L143.839 31.456z" opacity=".45"/><path d="M274.45 263.758H535.77L405.155 31.456H143.839z" opacity=".6"/><path d="M143.839 495.97 274.45 263.758 143.839 31.456 13.225 263.758z" opacity=".8"/><path d="M472.215 849.164 602.919 616.86h261.318L733.532 849.164z" opacity=".45"/><path d="M602.918 616.862H341.6l130.613 232.303H733.53z" opacity=".6"/><path d="M733.532 384.65 602.918 616.862l130.614 232.303 130.704-232.303z" opacity=".8"/><text xml:space="preserve" x="344" y="442.667" fill="#fff" stroke-dasharray="null" stroke-linecap="null" stroke-linejoin="null" stroke-width="0" font-family="Sans-serif" font-size="24" text-anchor="middle" transform="translate(-3865.275 -5002.37)scale(12.42857)">SL</text><path d="M209.753 221.222h450.33v450.33h-450.33z"/><path d="M332.496 625.208H347.6v15.103h-15.103zm1.762-13.341v11.579h11.58v-11.58z"/><path fill="#fff" d="M236.642 580.802h212v23.247h-212z"/><text xml:space="preserve" x="409.996" y="479.669" fill="#fff" stroke-dasharray="null" stroke-linecap="null" stroke-linejoin="null" stroke-width="0" font-family="Sans-serif" font-size="24" text-anchor="middle" transform="translate(-4381.36 -5089.978)scale(11.65457)">SL</text></svg>
